X: 29688
T: Nothing Better To Do
R: jig
M: 6/8
K: Gmajor
e3 edB|deg B3|AGE GBd|edB GBd|
e3 edB|deg B3|AGE GBd|edB ~A3:|
e3 edB|def ~g3|agf g2g|gfe edd|
e3 edB|def ~g3|agf gfe|d3 dBd|
e3 edB|def ~g3|agf gba|gfe edd|
edd edd|def gab|agf gfe|dGA Bcd|

